!!!!SEGMENT: pl-kk--kk-i-8--031_anonim--lauda-mater-ecclesia.krn
!!!cenid: 16xx:1172
!!!COM: Anonim
!!!COM-rismID:
!!!CDT:
!!!CNT:
!!!OTL: Lauda Mater Ecclesia
!!!PDT:
!!!AGN: Sacred
!!!SMS-siglum: PL-Kk
!!!SMS-shelfmark: Kk.I.8
!!!SMS-shelfwork: 031 W
!!!SMS-variant:
!!!SMS-altvar:
!!!NIFC-rismSourceID: 1001149136
!!!NIFC-islandoraID: pl-kk:2296
!!!URL-pdf-islandora: https://repozytorium.nifc.pl/islandora/object/pl-kk%3A2296/datastream/PDF/view
!!!URL-scan: https://polish.musicsources.pl/pl/lokalizacje/galeria/rekopisy/6141 @EN{Scan on Polish Music Herritage in Open Access Website} @PL{Skany w portalu Dziedzictwo Muzyki Polskiej w otwartym dostępie}
!!!ONB-nifc: UWAGA: A (skan 0019), T1 (0042), T2 (0066), B (0089). Następny utwór: Jesu Redemptor omnium
!!!AIN: 1 alto 1 bass 2 tenor
!!!key:
**kern	**text	**text	**kern	**text	**text	**kern	**text	**text	**kern	**text	**text
*part4	*part4	*part4	*part3	*part3	*part3	*part2	*part2	*part2	*part1	*part1	*part1
*staff4	*staff4	*staff4	*staff3	*staff3	*staff3	*staff2	*staff2	*staff2	*staff1	*staff1	*staff1
*Ibass	*	*	*Itenor	*	*	*Itenor	*	*	*Ialto	*	*
*I"BASSVS.	*	*	*I"TENOR 2dus.	*	*	*I"Tenore 1mo	*	*	*I"alto.	*	*
*I'B.	*	*	*I'T. 2	*	*	*I'T. 1	*	*	*I'A.	*	*
*clefF4	*	*	*clefC4	*	*	*clefC1	*	*	*clefC3	*	*
*k[]	*	*	*k[]	*	*	*k[]	*	*	*k[]	*	*
*e:	*	*	*e:	*	*	*e:	*	*	*e:	*	*
*M3/1	*	*	*M3/1	*	*	*M3/1	*	*	*M3/1	*	*
=1	=1	=1	=1	=1	=1	=1	=1	=1	=1	=1	=1
!	!	!	!LO:TX:a:i:t=De S Maria Magdalena	!	!	!	!	!	!	!	!
!LO:TX:t=P:problem=L wielkie, na pocz. pięciolinii, przed kluczem	!	!	!LO:TX:t=P:problem=L wielkie, na pocz. pięciolinii, przed kluczem	!	!	!LO:TX:t=P:problem=L wielkie, na pocz. pięciolinii, przed kluczem	!	!	!LO:TX:a:i:t=De S(an)cta Maria Magdalena	!	!
!LO:TX:a:i:t=Z	!	!	!LO:TX:a:i:t=Z	!	!	!LO:TX:a:i:t=Z	!	!	!LO:TX:t=P:problem=L wielkie, na pocz. pięciolinii, przed kluczem	!	!
0E\	1 Lau-	3 Post	0B\	1 Lau-	3 Post	0ee\	1 Lau-	3 Post	0g\	1 Lau-	3 Poſt
!LO:TX:t=P:#above:problem	!	!	!LO:TX:t=P:#above:problem	!	!	!	!	!	!LO:TX:t=P:#above:problem	!	!
1D#X\	-da	flu-	1d#X\	-da	flu-	1b\	-da	flu-	1f#X\	-da	flu-
=2	=2	=2	=2	=2	=2	=2	=2	=2	=2	=2	=2
1E\	Ma-	-x(ae)	1B\	Ma-	-x(ae)	1ee\	Ma-	-x(ae)	1g\	Ma-	-x(ae)
1E\	-ter	car-	1e\	-ter	Car-	1b\	-ter	Car-	1g\	-ter	car-
!	!	!	!	!	!	!LO:TX:t=P:#above:problem	!	!	!	!	!
1A\	Ec-	-nis	1e\	Ec-	-niſ	1cc#X\	Ec-	-nis	1a\	Ec-	-nis
=3	=3	=3	=3	=3	=3	=3	=3	=3	=3	=3	=3
!	!	!	!	!	!	!LO:TX:t=P:#above:problem	!	!	!	!	!
1.B\	-cle-	ſcan-	1.d#X\	-cle-	ſcan-	1.dd#X\	-cle-	ſcan-	1.f#X\	-cle-	ſcan-
2BB/	-ſi-	-da-	2d#\	-ſi-	-da-	2dd#\	-ſi-	-da-	2f#\	-ſi-	-da-
1BB/	-a	-la	1d#\	-a	-la,	1dd#\	-a	-la,	1f#\	-a	-la
=4	=4	=4	=4	=4	=4	=4	=4	=4	=4	=4	=4
!	!	!	!LO:N:acc=-	!	!	!LO:N:acc=-	!	!	!	!	!
*	*ij	*ij	*	*ij	*ij	*	*ij	*ij	*	*ij	*ij
0G\	Lau-	Post	0dnX\	Lau-	Post	0ddn\	Lau-	Post	0g\	Lau-	Poſt
1G\	-da	flu-	1B\	-da	flu-	1dd\	-da	flu-	1g\	-da	flu-
=5	=5	=5	=5	=5	=5	=5	=5	=5	=5	=5	=5
1G\	Ma-	-x(ae)	1d\	Ma-	-x(ae)	1dd\	Ma-	-x(ae)	1g\	Ma-	-x(ae)
1BB/	-ter	Car-	1B\	-ter	Car-	1dd\	-ter	Car-	1d\	-ter	car-
1C#X/	Ec-	-nis	1e\	Ec-	-niſ	2cc\	Ec-	-nis	1e\	Ec-	-nis
.	.	.	.	.	.	2b\	.	.	.	.	.
=6	=6	=6	=6	=6	=6	=6	=6	=6	=6	=6	=6
!	!	!	!	!	!	!	!	!	!LO:TX:t=P:#above:problem	!	!
1.D\	-cle-	ſcan-	1.A\	-cle-	ſcan-	2a\	-cle-	ſcan-	1.f#X\	-cle-	ſcan-
.	.	.	.	.	.	4b\	.	.	.	.	.
.	.	.	.	.	.	4cc\	.	.	.	.	.
.	.	.	.	.	.	2.dd\	.	.	.	.	.
2D/	-ſi-	-da-	2A/	-ſi	-da-	.	.	.	2f#\	-ſi-	-da-
.	.	.	.	.	.	4dd\	-ſi-	-da-	.	.	.
1D\	-a	-la	1A\	-a	-la	1dd\	-a	-la	1f#\	-a	-la
*	*Xij	*Xij	*	*Xij	*Xij	*	*Xij	*Xij	*	*Xij	*Xij
=7	=7	=7	=7	=7	=7	=7	=7	=7	=7	=7	=7
0G\	lau-	ſit	0B\	Lau-	ſit	0dd\	Lau-	ſit	0g\	lau-	fit
1E\	-da	ex	1e\	-da	ex	1ee\	-da	ex	1g\	-da	ex
=8	=8	=8	=8	=8	=8	=8	=8	=8	=8	=8	=8
!	!	!	!	!	!	!	!	!	!LO:TX:t=P:#above:problem	!	!
0F#X\	X-	le-	0A\	X-	le-	1cc#X\	X-	le-	0f#X\	Chri-	le-
!	!	!	!	!	!	!LO:TX:t=P:#above:problem	!	!	!	!	!
.	.	.	.	.	.	1dd#\	-i	-be-	.	.	.
1C/	-i	-be-	1A\	-i	-be-	1ee\	cle-	-te	1a\	-ſti	-be-
=9	=9	=9	=9	=9	=9	=9	=9	=9	=9	=9	=9
!	!	!	!	!	!	!	!	!	!LO:TX:t=P:#above:problem	!	!
1D\	cle-	-te	1B\	cle-	-te	1dd\	.	phi-	1f#X\	cle-	-te
!	!	!	!	!	!	!LO:TX:t=P:#above:problem	!	!	!	!	!
(1E\	-men-	phi-	2e\	-men-	phi-	1.cc#X\	-men-	.	1.g\	-men-	phi-
.	.	.	2d\	.	.	.	.	.	.	.	.
!LO:TX:t=P:#above:problem	!	!	!LO:TX:t=P:#above:problem	!	!	!	!	!	!	!	!
2F#X\)	.	.	2c#X\	.	.	.	.	.	.	.	.
!LO:TX:t=P:#above:problem	!	!	!LO:TX:t=P:#above:problem	!	!	!	!	!	!	!	!
2F#X\	-ti-	-a-	2c#X\	-ti-	-a-	2cc#\	-ti-	-a-	2f#\	-ti-	-a-
=10	=10	=10	=10	=10	=10	=10	=10	=10	=10	=10	=10
*	*	*	*	*	*	*	*	*	*custos:g	*	*
!	!	!	!	!	!	!	!	!	!LO:TX:t=P:#above:problem	!	!
0.BB/	-am	-la	0.d\	-a(m)	-la	0.b\	-a(m)	-la	0.f#X\	-a(m)	-la
!	!	!	!LO:LB:g=original	!	!	!LO:LB:g=original	!	!	!LO:LB:g=original	!	!
=11	=11	=11	=11	=11	=11	=11	=11	=11	=11	=11	=11
1G\	qui	In	1d-X\	qui	in	1dd\	qui	In	1g\	qui	in
1G\	ſep-	vaſ	1B\	ſep-	waſ	1dd\	ſep-	vaſ	1g\	ſep-	Vas
1G\	-tem	tranſ-	1B\	-te(m)	tranſ-	1dd\	-te(m)	tranſ-	1g\	-tem	trans-
=12	=12	=12	=12	=12	=12	=12	=12	=12	=12	=12	=12
0E\	pur-	-la-	0A\	pur-	-la-	0dd\	pur-	-la-	0g\	pur-	-la-
!	!	!	!LO:TX:t=P:#above:problem	!	!	!	!	!	!	!	!
1E\	-gat	-ta	1B#X\	-gat	-ta	1cc\	-gat	-ta	1g\	-gat	-ta
=13	=13	=13	=13	=13	=13	=13	=13	=13	=13	=13	=13
1.D\	Vi-	glo-	1.A\	Cri-	glo-	1.dd\	Vi-	glo-	1.f#X\	Vi-	glo-
2D/	-ti-	-ri-	2A/	-mi-	-ri-	2dd\	-ti-	-ri-	2f#\	-ti-	-ri-
1D\	-a	-(ae)	1A\	-na	-(ae)	2dd\	-a	-(ae)	1f#\	-a	-(ae)
.	.	.	.	.	.	2cc\	.	.	.	.	.
=14	=14	=14	=14	=14	=14	=14	=14	=14	=14	=14	=14
1E\	per	de	1e\	per	de	1b\	per	de	1g#X\	per	de
1E\	ſe-	Va-	1B\	ſe-	Va-	1b\	ſe-	Va-	1g#\	ſe-	Va-
1E\	-pti-	-ſe	1e\	-pti-	-ſe	1ee\	-pti-	-ſe	1g#\	-pti-	-ſe
=15	=15	=15	=15	=15	=15	=15	=15	=15	=15	=15	=15
0C/	-for-	con-	1A\	-for-	con-	1ee\	-for-	con-	0a\	-for-	con-
.	.	.	1B\	.	.	1dd\	.	.	.	.	.
0AA/	-me(m)	-tu-	2c\	-me(m)	-tu-	1cc-X\	-me(m)	-tu-	1a\	-me(m)	-tu-
.	.	.	2d\	.	.	.	.	.	.	.	.
=16	=16	=16	=16	=16	=16	=16	=16	=16	=16	=16	=16
.	.	.	1.e\	gra-	-me-	1cc\	gra-	-me-	0a\	gra-	-me-
1.E\	gra-	-me-	.	.	.	1.b\	.	.	.	.	.
.	.	.	4d\	.	.	.	.	.	.	.	.
.	.	.	4c\	.	.	.	.	.	.	.	.
!	!	!	!	!	!	!	!	!	!LO:TX:t=P:#above:problem	!	!
.	.	.	2B\	.	.	.	.	.	1g#X\	-ti-	-li-
2E\	-ti-	-li-	2B\	-ti-	-li-	2b\	-ti-	-li-	.	.	.
=17	=17	=17	=17	=17	=17	=17	=17	=17	=17	=17	=17
0AA/	-a(m)	-(ae)	0c#X\	-am	-(ae)	0a\	-am	-(ae)	0a\	-a(m)	-(ae)
!	!	!	!	!	!	!	!	!	!LO:TX:t=P:problem=brak kreski taktowej	!	!
*	*ij	*ij	*	*ij	*	*	*	*	*	*	*
1A\	per	de	1e\	per	de	2cc\	per	de	1a\	per	de
.	.	.	.	.	.	2dd\	.	.	.	.	.
=18	=18	=18	=18	=18	=18	=18	=18	=18	=18-	=18	=18
!	!	!	!	!	!	!	!	!	!LO:N:acc=-	!	!
1.E\	ſep-	Va-	0e\	ſep-	Va-	0ee\	ſep-	Va-	0g-X\	ſe-	Va-
2F\	.	.	.	.	.	.	.	.	.	.	.
2G\	-ti-	-ſe	1e\	-ti-	-ſe	1b\	-ti-	-ſe	1g-X\	-pti-	-ſe
2A\	.	.	.	.	.	.	.	.	.	.	.
=19	=19	=19	=19	=19	=19	=19	=19	=19	=19	=19	=19
0B\	-for-	con-	0d#X\	-for-	con-	0b\	-for-	con-	0f#X\	-for-	con-
0E\	-mem	-tu-	1e\	-mem	-tu	1b\	-mem	-tu	1g\	-mem	-ti-
=20	=20	=20	=20	=20	=20	=20	=20	=20	=20	=20	=20
.	.	.	0e\	gra-	me-	0b\	gra-	me-	1g\	gra-	-me-
!	!	!	!	!	!	!	!	!	!LO:TX:t=P:#above:problem	!	!
1.BB/	gra-	-me-	.	.	.	.	.	.	1.f#X\	.	.
!	!	!	!LO:TX:t=P:#above:problem	!	!	!	!	!	!	!	!
.	.	.	1d#X\	-ti-	-li-	1b\	-ti-	-li-	.	.	.
2BB/	.	.	.	.	.	.	.	.	2f#\	-ti-	-li-
=21	=21	=21	=21	=21	=21	=21	=21	=21	=21	=21	=21
!	!	!	!	!	!	!LO:TX:a:i:t=vi	!	!	!	!	!
0.E\;	-am	-(ae)	0.e\;	-am	-(ae)	0.b\;	-am	-(ae)	0.e\;	-am	-(ae)
*	*Xij	*Xij	*	*Xij	*	*	*	*	*	*	*
!LO:LB:g=original	!	!	!LO:LB:g=original	!	!	!LO:LB:g=original	!	!	!LO:LB:g=original	!	!
=22||	=22||	=22||	=22||	=22||	=22||	=22||	=22||	=22||	=22||	=22||	=22||
*M3/1	*	*	*M3/1	*	*	*M3/1	*	*	*M3/1	*	*
!	!	!	!LO:TX:t=P:problem=M wielkie, na pocz. pięciolinii, przed kluczem	!	!	!LO:TX:a:i:t=de	!	!	!	!	!
1C/	2 Ma-	4 (AE)-	1e\	2 Ma-	4 (AE)-	1cc\	2 Ma-	4 (AE)-	1g\	2 Ma-	(AE)-
1C/	-ri-	-gra	1e\	-ri-	-gra	1cc\	-ri-	-gra	1g\	-ri-	-gra
!	!	!	!	!	!	!	!	!	!LO:TX:t=P:problem=brak kreski taktowej	!	!
1G\	-a	Cur-	1d\	-a	Cur-	1dd\	-a	Cur-	1g\	-a	Cur-
=23	=23	=23	=23	=23	=23	=23	=23	=23	=23	=23	=23
0C/	ſo-	-rit	0e\	ſo-	-rit	0cc\	ſo-	-rit	0g\	ſo-	-rit
!LO:SIC:v:t=poprawka wysokości nuty	!	!	!	!	!	!	!	!	!	!	!
!LO:TX:a:i:t=g	!	!	!	!	!	!	!	!	!	!	!
1GG/	-ror	ad	1d\	-ror	ad	1dd\	-ror	ad	1g\	-ror	ad
=24	=24	=24	=24	=24	=24	=24	=24	=24	=24	=24	=24
!	!	!	!	!	!	!	!	!	!LO:TX:t=P:#above:problem	!	!
1.D\	La-	Me-	1.d\	La-	Me-	1.a\	La-	Me-	1.f#X\	La-	me-
2D/	-za-	-di-	2d\	-za-	-di-	2a\	-za-	-di-	2f#\	-za-	-di-
1D\,	-ri	-cu(m)	1d\	-ri	-cu(m)	1a\	-ri	-cu(m)	1f#\	-ri	-cu(m)
=25	=25	=25	=25	=25	=25	=25	=25	=25	=25	=25	=25
1B\	qu(ae)	Vaſ	1d#X\	qu(ae)	Vaſ	1b\	qu(ae)	Vaſ	1f#X\	qu(ae)	Vaſ
1B\	tot	fe-	1d#\	tot	fe-	1b\	tot	fe-	1f#\	tot	fe-
1B\	Com-	-renſ	1d#\	Com-	-renſ	1b\	com-	-renſ	1f#\	Com-	-rens
=26	=26	=26	=26	=26	=26	=26	=26	=26	=26	=26	=26
*col	*	*	*	*	*	*	*	*	*	*	*
0E\	-mi-	aro-	2e\	-mi-	a-	(2b\	-mi-	a-	(2g\	-mi-	a-
.	.	.	2d\	.	.	4cc\)	.	.	2f\)	.	.
.	.	.	.	.	.	4dd\	.	.	.	.	.
.	.	.	2B\	.	-ro-	1ee\	.	-ro-	(2d\	.	-ro-
.	.	.	2c\	.	.	.	.	.	2e\)	.	.
0BB/	-ſit	-ma-	1d\	-ſit	-ma-	1dd\	-ſit	-ma-	1f\	.	-ma-
=27	=27	=27	=27	=27	=27	=27	=27	=27	=27	=27	=27
.	.	.	1d\	Cri-	-ti-	(1dd\	Cri-	-ti-	1f\	-sit	.
1.F#X\	Cri	-ti-	1B\	.	.	1.cc#X\)	.	.	(1d\	Cri-	.
.	.	.	2c#X\	.	.	.	.	.	2e#X\)	.	.
2F#\	-mi-	-cu(m)	2c#\	-mi-	-cu(m)	2cc#\	-mi-	-cu(m)	2e#\	-mi-	-ti-
*Xcol	*	*	*	*	*	*	*	*	*	*	*
=28	=28	=28	=28	=28	=28	=28	=28	=28	=28	=28	=28
0BB/	-na	Et	0d\	-na	et	0b\	-na	et	0f\,	-na	-cum
1B\	ab	a	1d\	ab	a	1b\	ab	a	1f\	ab	Et
=29	=29	=29	=29	=29	=29	=29	=29	=29	=29	=29	=29
0F#X\	i-	mor-	2d\	i-	mor-	0a\	i-	mor-	(2f\	i-	a
.	.	.	2e\	.	.	.	.	.	2g\)	.	.
!	!	!	!LO:TX:t=P:#above:problem	!	!	!	!	!	!	!	!
.	.	.	1f#X\	.	.	.	.	.	1a\	.	.
!	!	!	!	!	!	!	!	!	!LO:TX:t=P:problem=brak kreski taktowej	!	!
(2F#\	-pſa	-bo	1f#\	-pſa	-bo	2a\	-pſa	-bo	1a\	-pſa	mor-
2G\)	.	.	.	.	.	2b\	.	.	.	.	.
!	!	!	!LO:LB:g=original	!	!	!	!	!	!	!	!
=30	=30	=30	=30	=30	=30	=30	=30	=30	=30	=30	=30
0A\	fau-	mul-	0c#X\	fau-	mul-	0cc\	fau-	mul-	0e\	fau-	-bo
!	!	!	!	!	!	!	!	!	!LO:LB:g=original	!	!
1A\	-ce	-ti-	(2c#\	-ce	-ti-	1cc\	-ce	-ti-	(2e\	-ce	mul-
.	.	.	2d\)	.	.	.	.	.	2f\)	.	.
=31	=31	=31	=31	=31	=31	=31	=31	=31	=31	=31	=31
1.E\	Tar-	-pli-	1.e\	Tar-	-pli-	1.b\	Tar-	-pli-	1.g\	tar-	-ti-
2E\	-ta-	.	2e\	-ta-	.	2b\	-ta-	.	2g\	-ta-	-pli-
!	!	!	!	!	!	!LO:LB:g=original	!	!	!	!	!
2E\	-ri	-ci	2e\	-ri	-ci	2b\	-ri	-ci	2g\	-ri	-ci
2D/	re-	Ver-	2d\	re-	Ver-	2b\	re-	Ver-	2f\	re-	ver-
!LO:LB:g=original	!	!	!	!	!	!	!	!	!	!	!
=32	=32	=32	=32	=32	=32	=32	=32	=32	=32	=32	=32
1.F#X\	-dit	-bo	1.c#X\	-dit	-bo	1.cc#X\	-dit	-bo	1.e\	-dit	-bo
2E\	ad	cu-	2c#\	ad	ſa-	2cc#\	ad	cu-	2e\	ad	cu-
1D\	Vi-	-ra-	1f#X\	Vi-	-na-	1dd\	Vi-	-ra-	1a\	Vi-	-ra-
=33	=33	=33	=33	=33	=33	=33	=33	=33	=33	=33	=33
1E\	-t(ae)	-t(ur)	2e\	-t(ae)	-t(ur)	1cc#X\	-t(ae)	-t(ur)	2g\	-t(ae)	-tur
.	.	.	2d\	.	.	.	.	.	2f\	.	.
!	!	!	!LO:TX:t=P:#above:problem	!	!	!	!	!	!	!	!
1.F#X\	li-	Me-	1.c#X\	li-	Me-	1.cc#\	li-	Me-	1.e#X\	li-	me-
2F#\	-mi-	-di-	2A\	-mi-	-di-	2cc#\	-mi-	-di-	2c/	-mi-	-di-
=34	=34	=34	=34	=34	=34	=34	=34	=34	=34	=34	=34
0BB/	-na	-ci,	0d#X\	-na	-ci	0b\	-na	-ci,	0f\	-na	-ci
!	!	!	!LO:N:acc=-	!	!	!	!	!	!	!	!
1BB/	ab	et	1dn\	ab	et	1b\	ab	et	1f\	ab	et
=35	=35	=35	=35	=35	=35	=35	=35	=35	=35	=35	=35
!	!	!	!LO:TX:t=P:#above:problem	!	!	!LO:TX:t=P:#above:problem	!	!	!	!	!
0F#X\	i-	a	0f#X\	i-	a	0cc#X\	i-	a	0a\	i-	a-
!	!	!	!	!	!	!LO:TX:t=P:#above:problem	!	!	!	!	!
1F#\	-pſa	Ver-	1f#\	-pſa	ver-	1cc#X\	-pſa	Ver-	1a\	-pſa	-mor-
=36	=36	=36	=36	=36	=36	=36	=36	=36	=36	=36	=36
0A\	fau-	-bo	0c#X\	fau-	-bo	0a\	fau-	-bo	0e\	fau-	-bo
1A\	-ce	Mul-	1c#\	-ce	Mul-	1cc\	-ce	Mul-	1e\	-ce	mul-
=37	=37	=37	=37	=37	=37	=37	=37	=37	=37	=37	=37
1.E\	tar-	-ti-	1.e\	Tar-	-ti-	1b\	tar-	-ti-	1.g\	tar-	-ti-
.	.	.	.	.	.	2b\	-ta-	-pli-	.	.	.
2E\	-ta-	-pli-	2e\	-ta-	-pli-	2b\	-ri	-ci	2g\	-ta-	-pli-
2E\	-ri	-ci	2e\	-ri	-ci	2a\	.	.	2g\	-ri	-ci
2D/	.	.	2d\	.	.	2b\	.	.	2f\	re-	ver-
=38	=38	=38	=38	=38	=38	=38	=38	=38	=38	=38	=38
0A\	re-	Ver-	0e\	re-	Ver-	0cc\	re-	Ver-	0g\	-dit	-bo
1A\	-dit	-bo	1e\	-dit	-bo	1cc\	-dit	-bo	1g\	ad	cur-
=39	=39	=39	=39	=39	=39	=39	=39	=39	=39	=39	=39
0E\	ad	cu-	0e\	ad	ſa-	0b\	ad	cu-	0g\	Vi-	-a-
1E\	Vi-	-ra-	1e\	Vi-	-na-	1b\	Vi-	-ra-	1g\	-t(ae)	-t(u)r
=40	=40	=40	=40	=40	=40	=40	=40	=40	=40	=40	=40
0BB/	-t(ae)	-t(ur)	0e\	-t(ae)	-t(ur)	0b\	-t(ae)	-t(ur)	0g\	li-	me-
!	!	!	!LO:TX:t=P:#above:problem	!	!	!	!	!	!	!	!
1BB/	li-	Me-	1d#X\	li-	Me-	1b\	li-	Me-	1f#X\	-mi-	-di-
=41	=41	=41	=41	=41	=41	=41	=41	=41	=41	=41	=41
0E\	-mi-	-di-	0e\	-mi-	-di-	0b\	-mi-	-di-	0g\	-na	-ci
!	!	!	!LO:TX:a:i:t=vi	!	!	!	!	!	!	!	!
1E\	-na	-ci	1e\	-na	-ci	1b\	-na	-ci	1g\	re-	Ver-
!	!	!	!	!	!	!	!	!	!LO:LB:g=original	!	!
=42	=42	=42	=42	=42	=42	=42	=42	=42	=42	=42	=42
!	!	!	!LO:TX:a:i:t=de	!	!	!	!	!	!	!	!
*	*ij	*ij	*	*	*	*	*ij	*ij	*	*	*
0A\	re-	Ver-	1c\	re-	Ver-	0cc\	re-	Ver-	1e\	-dit	-bo
.	.	.	1d\	-dit	bo	.	.	.	1f\	ad	.
1A\	-dit	-bo	1e\	ad	ſa	1b\	-dit	-bo	1g\	.	cu-
=43	=43	=43	=43	=43	=43	=43	=43	=43	=43	=43	=43
*	*	*	*col	*	*	*	*	*	*col	*	*
0A\	ad	cu-	1c\	Vi-	na-	1cc\	ad	cu-	(1e\	vi-	-ra-
.	.	.	1A\	-t(ae)	-t(ur)	1dd\	vi-	-ra-	1c\)	.	.
!	!	!	!	!	!	!LO:TX:a:i:t=vi	!	!	!	!	!
1E\	vi-	-ra-	0e\	li-	Me-	1ee\	.	.	0g\	-t(ae)	-t(ur)
*	*	*	*Xcol	*	*	*	*	*	*Xcol	*	*
!LO:LB:g=original	!	!	!	!	!	!	!	!	!	!	!
=44	=44	=44	=44	=44	=44	=44	=44	=44	=44	=44	=44
!	!	!	!	!	!	!LO:TX:a:i:t=de	!	!	!	!	!
0BB/	-t(ae)	-t(ur)	.	.	.	1ee\	-t(ae)	-t(ur)	.	.	.
.	.	.	1.e\	-mi-	.	1.b\	li-	me-	1.g\	li-	me-
1BB/	limi-	medi-	.	.	.	.	.	.	.	.	.
!	!	!	!	!	!	!	!	!	!LO:TX:t=P:#above:problem	!	!
.	.	.	2d\	.	-di-	2b\	-mi-	-di-	2f#X\	-mi-	-di-
=45	=45	=45	=45	=45	=45	=45	=45	=45	=45	=45	=45
0.E\;	-na	-ci	0.e\;	-na	-ci	0.b\;	-na	-ci	0.g\	-na	-ci
*	*Xij	*Xij	*	*	*	*	*Xij	*Xij	*	*	*
!LO:LB:g=original	!	!	!LO:LB:g=original	!	!	!LO:LB:g=original	!	!	!	!	!
=46	=46	=46	=46	=46	=46	=46	=46	=46	=46	=46	=46
*M3/1	*	*	*M3/1	*	*	*M3/1	*	*	*M3/1	*	*
!LO:TX:t=P:problem=V wielkie, na początku pięciolinii	!	!	!	!	!	!	!	!	!LO:TX:t=P:problem=V wielkie, przed metrum	!	!
1E\	5 V-	.	1e\	5 V-	.	1b\	5 V-	.	1g\	V-	.
1E\	-ni	.	1e\	-ni	.	1b\	-ni	.	1g\	-ni	.
1E\	De-	.	(2B\	De-	.	1ee\	De-	.	1g\	De-	.
.	.	.	2c\	.	.	.	.	.	.	.	.
=47	=47	=47	=47	=47	=47	=47	=47	=47	=47	=47	=47
!	!	!	!	!	!	!	!	!	!LO:TX:t=P:#above:problem	!	!
0BB/	-o	.	1d\)	-o	.	0dd\	-o	.	0f#X\	-o	.
.	.	.	1c#X\	.	.	.	.	.	.	.	.
1BB/	ſit	.	1B\	ſit	.	1dd\	ſit	.	1f#\	sit	.
=48	=48	=48	=48	=48	=48	=48	=48	=48	=48	=48	=48
!	!	!	!	!	!	!	!	!	!LO:TX:t=P:#above:problem	!	!
0F\	glo-	.	0c\	glo-	.	0cc\	glo-	.	0f#X\	glo-	.
1F\	-ri-	.	1c\	-ri-	.	1cc\	-ri-	.	1f#\	-ri-	.
=49	=49	=49	=49	=49	=49	=49	=49	=49	=49	=49	=49
0BB/	-a	.	0d#X\	-a	.	0b\	-a	.	0f\	-a	.
!	!	!	!LO:N:acc=-	!	!	!	!	!	!	!	!
1G\	pro	.	1dn\	pro	.	1b\	pro	.	1g\	pro	.
=50	=50	=50	=50	=50	=50	=50	=50	=50	=50	=50	=50
0G\	ſep-	.	1.d\	ſep-	.	0dd\	ſep-	.	0g\	ſep-	.
.	.	.	2c\	.	.	.	.	.	.	.	.
1G\	-ti-	.	1B\	-ti-	.	1dd\	-ti-	.	1g\	-ti-	.
=51	=51	=51	=51	=51	=51	=51	=51	=51	=51	=51	=51
!	!	!	!	!	!	!LO:N:acc=-	!	!	!	!	!
1A\	-for-	.	0e\	-for-	.	0ccn\	-for-	.	1e\	-for-	.
!	!	!	!	!	!	!	!	!	!LO:TX:t=P:#above:problem	!	!
1AA/	.	.	.	.	.	.	.	.	1f#X\	.	.
1BB/	-mi	.	1d\	-mi	.	1b\	-mi	.	1g\	-mi	.
=52	=52	=52	=52	=52	=52	=52	=52	=52	=52	=52	=52
1C/	gra-	.	1e\	gra-	.	0a\	gra-	.	0g\	gra-	.
1.D\	.	.	1.d\	.	.	.	.	.	.	.	.
.	.	.	.	.	.	1a\	-ti-	.	1f\	-ti-	.
2D/	-ti-	.	2d\	-ti-	.	.	.	.	.	.	.
=53	=53	=53	=53	=53	=53	=53	=53	=53	=53	=53	=53
0G\	-a	.	0d\	-a	.	0b\	-a	.	0g\	-a	.
!LO:TX:t=P:problem=przed nutą mały znak repetycji	!	!	!LO:TX:t=P:problem=przed nutą mały znak repetycji	!	!	!LO:TX:t=P:problem=przed nutą mały znak repetycji	!	!	!	!	!
1G\	qui	.	1d\	qui	.	1b\	qui	.	1g\,	qui	.
=54	=54	=54	=54	=54	=54	=54	=54	=54	=54	=54	=54
0E\	cul-	.	0e\	cul-	.	0cc#X\	cul-	.	0g\	cul-	.
1E\	-paſ	.	1e\	-paſ	.	1cc#\	-paſ	.	1g\	-paſ	.
=55	=55	=55	=55	=55	=55	=55	=55	=55	=55	=55	=55
!	!	!	!	!	!	!	!	!	!LO:TX:t=P:#above:problem	!	!
0F#X\	et	.	1c#X\	et	.	1a\	et	.	0f#X\	et	.
.	.	.	1d\	.	.	1b\	.	.	.	.	.
!	!	!	!	!	!	!LO:TX:t=P:#above:problem	!	!	!	!	!
1C#X/	ſup-	.	1e\	ſup-	.	1cc#X\	ſup-	.	1a\	ſup-	.
!LO:LB:g=original	!	!	!	!	!	!	!	!	!	!	!
=56	=56	=56	=56	=56	=56	=56	=56	=56	=56	=56	=56
1.E\	-pli-	.	1.e\	-pli-	.	1.b\	-pli-	.	1.a\	-pli-	.
!	!	!	!	!	!	!	!	!	!LO:TX:t=P:#above:problem	!	!
2E\	-ci-	.	2f\	-ci-	.	2b\	-ci-	.	2g#X\	-ci-	.
!	!	!	!LO:LB:g=original	!	!	!	!	!	!	!	!
1AC/	-a	.	1c#X\	-a	.	1cc#X\	-a	.	1a\	-a	.
=57	=57	=57	=57	=57	=57	=57	=57	=57	=57	=57	=57
1A\	re-	.	1e\	re-	.	1cc\	re-	.	1a\	re-	.
1C#X/	-mit-	.	1e\	-mit-	.	1cc\	-mit-	.	1a\	-mit-	.
1D#X\	-tit	.	2d\	-tit	.	2b\	-tit	.	1f\	-tit	.
!	!	!	!LO:TX:t=P:#above:problem	!	!	!	!	!	!	!	!
.	.	.	2c#X\	.	.	2a\	.	.	.	.	.
=58	=58	=58	=58	=58	=58	=58	=58	=58	=58	=58	=58
0E\	et	.	0B\	et	.	1g\	et	.	0g\	et	.
.	.	.	.	.	.	1a\	.	.	.	.	.
1E\	dat	.	1e\	dat	.	1b\	dat	.	1g\	dat	.
=59	=59	=59	=59	=59	=59	=59	=59	=59	=59	=59	=59
!	!	!	!	!	!	!	!	!	!LO:TX:t=P:#above:problem	!	!
0BB/	pr(ae)-	.	0e\	pr(ae)-	.	0b\	pr(ae)-	.	0f#X\	pr(ae)-	.
!	!	!	!LO:TX:t=P:#above:problem	!	!	!	!	!	!	!	!
1BB/	-mi-	.	1d#X\	-mi-	.	1b\	-mi-	.	1f#\	-mi-	.
=60	=60	=60	=60	=60	=60	=60	=60	=60	=60	=60	=60
!LO:TX:t=P:problem=po nucie mały znak repetycji	!	!	!LO:TX:t=P:problem=po nucie mały znak repetycji	!	!LO:TX:t=P:#above:problem	!LO:TX:t=P:problem=po nucie mały znak repetycji	!	!	!	!	!
0E\	-a	.	0e\	-a	.	0b\	-a	.	0g#X\	-a	.
!	!	!	!	!	!	!LO:TX:t=P:problem=od tego miejsca do t. 68 nuty zapisane znakiem repetycji	!	!	!LO:N:acc=-	!	!
1G\	qui	.	1d\	qui	.	1b\	qui	.	1gnX\	q(u)i	.
=61	=61	=61	=61	=61	=61	=61	=61	=61	=61	=61	=61
0E\	cul-	.	0e\	cul-	.	0cc#X\	cul-	.	0g\	cul-	.
1E\	-paſ	.	1e\	-paſ	.	1cc#\	-paſ	.	1g\	-paſ	.
=62	=62	=62	=62	=62	=62	=62	=62	=62	=62	=62	=62
!	!	!	!	!	!	!	!	!	!LO:TX:t=P:#above:problem	!	!
0F#X\	et	.	1c#X\	et	.	1a\	et	.	0f#X\	et	.
.	.	.	1d\	.	.	1b\	.	.	.	.	.
1C#X/	ſup-	.	1e\	ſup-	.	1cc#X\	ſup-	.	1a\	ſup-	.
=63	=63	=63	=63	=63	=63	=63	=63	=63	=63	=63	=63
1.E\	-pli-	.	1.e\	-pli-	.	1.b\	-pli-	.	1.a\	-pli-	.
!	!	!	!	!	!	!	!	!	!LO:TX:t=P:#above:problem	!	!
2E\	-ci-	.	2f\	-ci-	.	2b\	-ci-	.	2g#X\	-ci-	.
1C/	-a	.	1c#X\	-a	.	1cc#X\	-a	.	1a\	-a	.
!	!	!	!	!	!	!LO:LB:g=original	!	!	!	!	!
=64	=64	=64	=64	=64	=64	=64	=64	=64	=64	=64	=64
1A\	re-	.	1e\	re-	.	1cc\	re-	.	1a\	re-	.
1C#X/	-mit-	.	1e\	-mit-	.	1cc\	-mit-	.	1a\	-mit-	.
1D#X\	-tit	.	2d\	-tit	.	2b\	-tit	.	1f\	-tit	.
.	.	.	2c#X\	.	.	2a\	.	.	.	.	.
=65	=65	=65	=65	=65	=65	=65	=65	=65	=65	=65	=65
0E\	et	.	0B\	et	.	1g\	et	.	0g\	et	.
.	.	.	.	.	.	1a\	.	.	.	.	.
1E\	dat	.	1e\	dat	.	1b\	dat	.	1g\	dat	.
!	!	!	!	!	!	!	!	!	!LO:LB:g=original	!	!
=66	=66	=66	=66	=66	=66	=66	=66	=66	=66	=66	=66
!	!	!	!	!	!	!	!	!	!LO:TX:t=P:problem=słowo nieczytelne - plama	!	!
0BB/	pr(ae)-	.	0e\	pr(ae)-	.	0b\	pr(ae)-	.	0f\	prae-	.
1BB/	-mi-	.	1d#X\	-mi-	.	1b\	-mi-	.	1f\	-mi-	.
=67	=67	=67	=67	=67	=67	=67	=67	=67	=67	=67	=67
0.E\	-a	.	0.e\	-a	.	0b\	-a	.	0.e\	-a	.
=68	=68	=68	=68	=68	=68	=68	=68	=68	=68	=68	=68
*M2/2	*	*	*M2/2	*	*	*	*	*	*M2/2	*	*
*met(c|)	*	*	*met(c|)	*	*	*	*	*	*met(c|)	*	*
!	!	!	!	!	!	!LO:TX:t=P:problem=brak zmiany metrum	!	!	!	!	!
.	.	.	.	.	.	0.b\;	.	.	.	.	.
0BB/	a-	.	0d\	a-	.	.	A-	.	2g\	am-	.
.	.	.	.	.	.	.	.	.	2g\	-en	.
=69	=69	=69	=69	=69	=69	=69	=69	=69	=69	=69	=69
.	.	.	.	.	.	.	.	.	4e\	a-	.
.	.	.	.	.	.	.	.	.	8f\L	.	.
.	.	.	.	.	.	.	.	.	8g\J	.	.
.	.	.	.	.	.	.	.	.	4a\	.	.
.	.	.	.	.	.	.	.	.	8g\L	.	.
.	.	.	.	.	.	.	.	.	8f\J	.	.
=70	=70	=70	=70	=70	=70	=70	=70	=70	=70	=70	=70
00E\;	-men	.	00e\;	-men	.	00b\	-men	.	00g#X\;;	-men.	.
==	==	==	==	==	==	==	==	==	==	==	==
*-	*-	*-	*-	*-	*-	*-	*-	*-	*-	*-	*-
!!!system-decoration: [(s1,s2,s3,s4)]
!!!EED: Leszek Kubiak
!!!EEV: 2021-04-06
!!!ENC: Mateusz Solarz
!!!END: 2021-03-26
